images/3048.svg

<?xml version="1.0" encoding="UTF-8"?>
<svg xmlns="http://www.w3.org/2000/svg" xmlns:xlink="http://www.w3.org/1999/xlink" width="300pt" height="300pt" viewBox="0 0 300 300" version="1.1">
<defs>
<g>
<symbol overflow="visible" id="glyph0-0">
<path style="stroke:none;" d="M 0.796875 2.828125 L 0.796875 -11.28125 L 8.796875 -11.28125 L 8.796875 2.828125 Z M 1.703125 1.9375 L 7.90625 1.9375 L 7.90625 -10.390625 L 1.703125 -10.390625 Z M 1.703125 1.9375 "/>
</symbol>
<symbol overflow="visible" id="glyph0-1">
<path style="stroke:none;" d="M 6.3125 -10.59375 C 5.164062 -10.59375 4.253906 -10.164062 3.578125 -9.3125 C 2.898438 -8.457031 2.5625 -7.296875 2.5625 -5.828125 C 2.5625 -4.359375 2.898438 -3.195312 3.578125 -2.34375 C 4.253906 -1.488281 5.164062 -1.0625 6.3125 -1.0625 C 7.457031 -1.0625 8.363281 -1.488281 9.03125 -2.34375 C 9.695312 -3.195312 10.03125 -4.359375 10.03125 -5.828125 C 10.03125 -7.296875 9.695312 -8.457031 9.03125 -9.3125 C 8.363281 -10.164062 7.457031 -10.59375 6.3125 -10.59375 Z M 6.3125 -11.875 C 7.945312 -11.875 9.253906 -11.328125 10.234375 -10.234375 C 11.210938 -9.140625 11.703125 -7.671875 11.703125 -5.828125 C 11.703125 -3.984375 11.210938 -2.507812 10.234375 -1.40625 C 9.253906 -0.3125 7.945312 0.234375 6.3125 0.234375 C 4.664062 0.234375 3.351562 -0.3125 2.375 -1.40625 C 1.394531 -2.507812 0.90625 -3.984375 0.90625 -5.828125 C 0.90625 -7.671875 1.394531 -9.140625 2.375 -10.234375 C 3.351562 -11.328125 4.664062 -11.875 6.3125 -11.875 Z M 6.3125 -11.875 "/>
</symbol>
<symbol overflow="visible" id="glyph0-2">
<path style="stroke:none;" d="M 10.3125 -10.765625 L 10.3125 -9.109375 C 9.78125 -9.597656 9.210938 -9.960938 8.609375 -10.203125 C 8.003906 -10.453125 7.363281 -10.578125 6.6875 -10.578125 C 5.351562 -10.578125 4.332031 -10.171875 3.625 -9.359375 C 2.914062 -8.546875 2.5625 -7.367188 2.5625 -5.828125 C 2.5625 -4.285156 2.914062 -3.109375 3.625 -2.296875 C 4.332031 -1.484375 5.351562 -1.078125 6.6875 -1.078125 C 7.363281 -1.078125 8.003906 -1.195312 8.609375 -1.4375 C 9.210938 -1.6875 9.78125 -2.054688 10.3125 -2.546875 L 10.3125 -0.90625 C 9.757812 -0.53125 9.171875 -0.242188 8.546875 -0.046875 C 7.929688 0.140625 7.28125 0.234375 6.59375 0.234375 C 4.832031 0.234375 3.441406 -0.304688 2.421875 -1.390625 C 1.410156 -2.472656 0.90625 -3.953125 0.90625 -5.828125 C 0.90625 -7.703125 1.410156 -9.175781 2.421875 -10.25 C 3.441406 -11.332031 4.832031 -11.875 6.59375 -11.875 C 7.289062 -11.875 7.945312 -11.78125 8.5625 -11.59375 C 9.1875 -11.414062 9.769531 -11.140625 10.3125 -10.765625 Z M 10.3125 -10.765625 "/>
</symbol>
<symbol overflow="visible" id="glyph0-3">
<path style="stroke:none;" d="M 1.515625 -12.15625 L 2.953125 -12.15625 L 2.953125 0 L 1.515625 0 Z M 1.515625 -12.15625 "/>
</symbol>
</g>
</defs>
<g id="surface44685">
<rect x="0" y="0" width="300" height="300" style="fill:rgb(100%,100%,100%);fill-opacity:1;stroke:none;"/>
<path style="fill:none;stroke-width:1.2;stroke-linecap:butt;stroke-linejoin:miter;stroke:rgb(0%,0%,0%);stroke-opacity:1;stroke-miterlimit:10;" d="M 161.320312 150 L 183.800781 119.054688 "/>
<path style="fill:none;stroke-width:1.2;stroke-linecap:butt;stroke-linejoin:miter;stroke:rgb(0%,0%,0%);stroke-opacity:1;stroke-miterlimit:10;" d="M 183.800781 180.945312 L 161.320312 150 "/>
<path style="fill:none;stroke-width:1.2;stroke-linecap:butt;stroke-linejoin:miter;stroke:rgb(0%,0%,0%);stroke-opacity:1;stroke-miterlimit:10;" d="M 183.800781 119.054688 L 147.425781 130.875 "/>
<path style="fill:none;stroke-width:1.2;stroke-linecap:butt;stroke-linejoin:miter;stroke:rgb(0%,0%,0%);stroke-opacity:1;stroke-miterlimit:10;" d="M 220.179688 130.875 L 183.800781 119.054688 "/>
<path style="fill:none;stroke-width:1.2;stroke-linecap:butt;stroke-linejoin:miter;stroke:rgb(0%,0%,0%);stroke-opacity:1;stroke-miterlimit:10;" d="M 147.425781 130.875 L 147.425781 169.125 "/>
<path style="fill:none;stroke-width:1.2;stroke-linecap:butt;stroke-linejoin:miter;stroke:rgb(0%,0%,0%);stroke-opacity:1;stroke-miterlimit:10;" d="M 111.046875 119.054688 L 147.425781 130.875 "/>
<path style="fill:none;stroke-width:1.2;stroke-linecap:butt;stroke-linejoin:miter;stroke:rgb(0%,0%,0%);stroke-opacity:1;stroke-miterlimit:10;" d="M 147.425781 169.125 L 183.800781 180.945312 "/>
<path style="fill:none;stroke-width:1.2;stroke-linecap:butt;stroke-linejoin:miter;stroke:rgb(0%,0%,0%);stroke-opacity:1;stroke-miterlimit:10;" d="M 147.425781 169.125 L 111.046875 180.945312 "/>
<path style="fill:none;stroke-width:1.2;stroke-linecap:butt;stroke-linejoin:miter;stroke:rgb(0%,0%,0%);stroke-opacity:1;stroke-miterlimit:10;" d="M 183.800781 180.945312 L 220.179688 169.125 "/>
<path style="fill:none;stroke-width:1.2;stroke-linecap:butt;stroke-linejoin:miter;stroke:rgb(0%,0%,0%);stroke-opacity:1;stroke-miterlimit:10;" d="M 220.179688 169.125 L 220.179688 130.875 "/>
<path style="fill:none;stroke-width:1.2;stroke-linecap:butt;stroke-linejoin:miter;stroke:rgb(100%,0%,0%);stroke-opacity:1;stroke-miterlimit:10;" d="M 253.304688 150 L 236.742188 159.5625 "/>
<path style="fill:none;stroke-width:1.2;stroke-linecap:butt;stroke-linejoin:miter;stroke:rgb(0%,0%,0%);stroke-opacity:1;stroke-miterlimit:10;" d="M 236.742188 159.5625 L 220.179688 169.125 "/>
<path style="fill:none;stroke-width:1.2;stroke-linecap:butt;stroke-linejoin:miter;stroke:rgb(0%,0%,0%);stroke-opacity:1;stroke-miterlimit:10;" d="M 220.179688 130.875 L 236.742188 140.4375 "/>
<path style="fill:none;stroke-width:1.2;stroke-linecap:butt;stroke-linejoin:miter;stroke:rgb(100%,0%,0%);stroke-opacity:1;stroke-miterlimit:10;" d="M 236.742188 140.4375 L 253.304688 150 "/>
<path style=" stroke:none;fill-rule:nonzero;fill:rgb(100%,100%,100%);fill-opacity:1;" d="M 247.304688 140.5 L 260.304688 140.5 L 260.304688 159.5 L 247.304688 159.5 Z M 247.304688 140.5 "/>
<g style="fill:rgb(100%,0%,0%);fill-opacity:1;">
  <use xlink:href="#glyph0-1" x="247.304688" y="155.351562"/>
</g>
<path style="fill:none;stroke-width:1.2;stroke-linecap:butt;stroke-linejoin:miter;stroke:rgb(0%,0%,0%);stroke-opacity:1;stroke-miterlimit:10;" d="M 111.046875 180.945312 L 74.667969 169.125 "/>
<path style="fill:none;stroke-width:1.2;stroke-linecap:butt;stroke-linejoin:miter;stroke:rgb(0%,0%,0%);stroke-opacity:1;stroke-miterlimit:10;" d="M 111.046875 180.945312 L 105.136719 199.132812 "/>
<path style="fill:none;stroke-width:1.2;stroke-linecap:butt;stroke-linejoin:miter;stroke:rgb(0%,80%,0%);stroke-opacity:1;stroke-miterlimit:10;" d="M 105.136719 199.132812 L 99.226562 217.324219 "/>
<path style="fill:none;stroke-width:1.2;stroke-linecap:butt;stroke-linejoin:miter;stroke:rgb(0%,0%,0%);stroke-opacity:1;stroke-miterlimit:10;" d="M 88.5625 150 L 111.046875 180.945312 "/>
<path style="fill:none;stroke-width:1.2;stroke-linecap:butt;stroke-linejoin:miter;stroke:rgb(0%,0%,0%);stroke-opacity:1;stroke-miterlimit:10;" d="M 74.667969 169.125 L 74.667969 130.875 "/>
<path style="fill:none;stroke-width:1.2;stroke-linecap:butt;stroke-linejoin:miter;stroke:rgb(0%,0%,0%);stroke-opacity:1;stroke-miterlimit:10;" d="M 83.667969 165.300781 L 83.667969 134.699219 "/>
<path style="fill:none;stroke-width:1.2;stroke-linecap:butt;stroke-linejoin:miter;stroke:rgb(0%,0%,0%);stroke-opacity:1;stroke-miterlimit:10;" d="M 74.667969 169.125 L 60.679688 182.167969 "/>
<path style="fill:none;stroke-width:1.2;stroke-linecap:butt;stroke-linejoin:miter;stroke:rgb(0%,80%,0%);stroke-opacity:1;stroke-miterlimit:10;" d="M 60.679688 182.167969 L 46.695312 195.210938 "/>
<path style="fill:none;stroke-width:1.2;stroke-linecap:butt;stroke-linejoin:miter;stroke:rgb(0%,0%,0%);stroke-opacity:1;stroke-miterlimit:10;" d="M 74.667969 130.875 L 111.046875 119.054688 "/>
<path style="fill:none;stroke-width:1.2;stroke-linecap:butt;stroke-linejoin:miter;stroke:rgb(0%,0%,0%);stroke-opacity:1;stroke-miterlimit:10;" d="M 74.667969 130.875 L 60.679688 117.832031 "/>
<path style="fill:none;stroke-width:1.2;stroke-linecap:butt;stroke-linejoin:miter;stroke:rgb(0%,80%,0%);stroke-opacity:1;stroke-miterlimit:10;" d="M 60.679688 117.832031 L 46.695312 104.789062 "/>
<path style="fill:none;stroke-width:1.2;stroke-linecap:butt;stroke-linejoin:miter;stroke:rgb(0%,0%,0%);stroke-opacity:1;stroke-miterlimit:10;" d="M 111.046875 119.054688 L 88.5625 150 "/>
<path style="fill:none;stroke-width:1.2;stroke-linecap:butt;stroke-linejoin:miter;stroke:rgb(0%,0%,0%);stroke-opacity:1;stroke-miterlimit:10;" d="M 111.046875 119.054688 L 105.136719 100.867188 "/>
<path style="fill:none;stroke-width:1.2;stroke-linecap:butt;stroke-linejoin:miter;stroke:rgb(0%,80%,0%);stroke-opacity:1;stroke-miterlimit:10;" d="M 105.136719 100.867188 L 99.226562 82.675781 "/>
<path style="fill:none;stroke-width:1.2;stroke-linecap:butt;stroke-linejoin:miter;stroke:rgb(0%,0%,0%);stroke-opacity:1;stroke-miterlimit:10;" d="M 88.5625 150 L 70.707031 143.148438 "/>
<path style="fill:none;stroke-width:1.2;stroke-linecap:butt;stroke-linejoin:miter;stroke:rgb(0%,80%,0%);stroke-opacity:1;stroke-miterlimit:10;" d="M 70.707031 143.148438 L 52.851562 136.296875 "/>
<path style="fill:none;stroke-width:1.2;stroke-linecap:butt;stroke-linejoin:miter;stroke:rgb(0%,0%,0%);stroke-opacity:1;stroke-miterlimit:10;" d="M 88.5625 150 L 70.707031 156.851562 "/>
<path style="fill:none;stroke-width:1.2;stroke-linecap:butt;stroke-linejoin:miter;stroke:rgb(0%,80%,0%);stroke-opacity:1;stroke-miterlimit:10;" d="M 70.707031 156.851562 L 52.851562 163.703125 "/>
<path style=" stroke:none;fill-rule:nonzero;fill:rgb(100%,100%,100%);fill-opacity:1;" d="M 36.851562 126.796875 L 52.851562 126.796875 L 52.851562 145.796875 L 36.851562 145.796875 Z M 36.851562 126.796875 "/>
<g style="fill:rgb(0%,80%,0%);fill-opacity:1;">
  <use xlink:href="#glyph0-2" x="36.851562" y="141.648438"/>
  <use xlink:href="#glyph0-3" x="48.023438" y="141.648438"/>
</g>
<path style=" stroke:none;fill-rule:nonzero;fill:rgb(100%,100%,100%);fill-opacity:1;" d="M 36.851562 154.203125 L 52.851562 154.203125 L 52.851562 173.203125 L 36.851562 173.203125 Z M 36.851562 154.203125 "/>
<g style="fill:rgb(0%,80%,0%);fill-opacity:1;">
  <use xlink:href="#glyph0-2" x="36.851562" y="169.054688"/>
  <use xlink:href="#glyph0-3" x="48.023438" y="169.054688"/>
</g>
<path style=" stroke:none;fill-rule:nonzero;fill:rgb(100%,100%,100%);fill-opacity:1;" d="M 83.226562 73.175781 L 99.226562 73.175781 L 99.226562 92.175781 L 83.226562 92.175781 Z M 83.226562 73.175781 "/>
<g style="fill:rgb(0%,80%,0%);fill-opacity:1;">
  <use xlink:href="#glyph0-2" x="83.226562" y="88.027344"/>
  <use xlink:href="#glyph0-3" x="94.398438" y="88.027344"/>
</g>
<path style=" stroke:none;fill-rule:nonzero;fill:rgb(100%,100%,100%);fill-opacity:1;" d="M 30.695312 95.289062 L 46.695312 95.289062 L 46.695312 114.289062 L 30.695312 114.289062 Z M 30.695312 95.289062 "/>
<g style="fill:rgb(0%,80%,0%);fill-opacity:1;">
  <use xlink:href="#glyph0-2" x="30.695312" y="110.140625"/>
  <use xlink:href="#glyph0-3" x="41.867188" y="110.140625"/>
</g>
<path style=" stroke:none;fill-rule:nonzero;fill:rgb(100%,100%,100%);fill-opacity:1;" d="M 30.695312 185.710938 L 46.695312 185.710938 L 46.695312 204.710938 L 30.695312 204.710938 Z M 30.695312 185.710938 "/>
<g style="fill:rgb(0%,80%,0%);fill-opacity:1;">
  <use xlink:href="#glyph0-2" x="30.695312" y="200.5625"/>
  <use xlink:href="#glyph0-3" x="41.867188" y="200.5625"/>
</g>
<path style=" stroke:none;fill-rule:nonzero;fill:rgb(100%,100%,100%);fill-opacity:1;" d="M 83.226562 207.824219 L 99.226562 207.824219 L 99.226562 226.824219 L 83.226562 226.824219 Z M 83.226562 207.824219 "/>
<g style="fill:rgb(0%,80%,0%);fill-opacity:1;">
  <use xlink:href="#glyph0-2" x="83.226562" y="222.675781"/>
  <use xlink:href="#glyph0-3" x="94.398438" y="222.675781"/>
</g>
</g>
</svg>

<svg xmlns="http://www.w3.org/2000/svg" xmlns:xlink="http://www.w3.org/1999/xlink" width="300pt" height="300pt" viewBox="0 0 300 300"><defs><symbol overflow="visible"><path d="M.797 2.828v-14.11h8V2.83zm.906-.89h6.203v-12.33H1.703zm0 0"/></symbol><symbol overflow="visible" id="a"><path d="M6.313-10.594c-1.15 0-2.06.43-2.735 1.28-.68.857-1.015 2.017-1.015 3.486 0 1.47.335 2.633 1.015 3.484.676.856 1.586 1.28 2.735 1.28 1.144.002 2.05-.424 2.718-1.28.665-.85 1-2.015 1-3.484 0-1.47-.335-2.63-1-3.484-.667-.852-1.573-1.282-2.717-1.282zm0-1.28c1.632 0 2.94.546 3.92 1.64.978 1.093 1.47 2.562 1.47 4.406 0 1.844-.492 3.32-1.47 4.422-.98 1.093-2.288 1.64-3.92 1.64-1.65 0-2.96-.546-3.938-1.64-.98-1.102-1.47-2.578-1.47-4.422 0-1.844.49-3.313 1.47-4.406.977-1.094 2.29-1.64 3.938-1.64zm0 0"/></symbol><symbol overflow="visible" id="b"><path d="M10.313-10.766v1.657c-.532-.488-1.102-.85-1.704-1.093-.606-.25-1.247-.375-1.922-.375-1.336 0-2.356.406-3.063 1.22-.71.81-1.063 1.99-1.063 3.53 0 1.543.352 2.72 1.063 3.53.707.814 1.727 1.22 3.063 1.22.675 0 1.316-.117 1.92-.36.603-.25 1.173-.617 1.704-1.11v1.642c-.554.375-1.14.664-1.765.86-.617.187-1.266.28-1.953.28-1.762 0-3.153-.54-4.172-1.625C1.41-2.474.906-3.954.906-5.83c0-1.875.504-3.348 1.516-4.422 1.02-1.082 2.41-1.625 4.172-1.625.695 0 1.35.094 1.968.28.626.18 1.208.454 1.75.83zm0 0"/></symbol><symbol overflow="visible" id="c"><path d="M1.516-12.156h1.437V0H1.516zm0 0"/></symbol></defs><g><path fill="#fff" d="M0 0h300v300H0z"/><path d="M161.32 150l22.48-30.945M183.8 180.945L161.32 150M183.8 119.055l-36.374 11.82M220.18 130.875l-36.38-11.82M147.426 130.875v38.25M111.047 119.055l36.38 11.82M147.426 169.125l36.375 11.82M147.426 169.125l-36.38 11.82M183.8 180.945l36.38-11.82M220.18 169.125v-38.25" stroke-width="1.2" stroke="#000" stroke-miterlimit="10" fill="none"/><path d="M253.305 150l-16.563 9.563" stroke-width="1.2" stroke="#f00" stroke-miterlimit="10" fill="none"/><path d="M236.742 159.563l-16.562 9.562M220.18 130.875l16.562 9.563" stroke-width="1.2" stroke="#000" stroke-miterlimit="10" fill="none"/><path d="M236.742 140.438L253.305 150" stroke-width="1.2" stroke="#f00" stroke-miterlimit="10" fill="none"/><path d="M247.305 140.5h13v19h-13zm0 0" fill="#fff"/><use xlink:href="#a" x="247.305" y="155.352" fill="#f00"/><path d="M111.047 180.945l-36.38-11.82M111.047 180.945l-5.91 18.188" stroke-width="1.2" stroke="#000" stroke-miterlimit="10" fill="none"/><path d="M105.137 199.133l-5.91 18.19" stroke-width="1.2" stroke="#0c0" stroke-miterlimit="10" fill="none"/><path d="M88.563 150l22.484 30.945M74.668 169.125v-38.25M83.668 165.3v-30.6M74.668 169.125L60.68 182.168" stroke-width="1.2" stroke="#000" stroke-miterlimit="10" fill="none"/><path d="M60.68 182.168L46.695 195.21" stroke-width="1.2" stroke="#0c0" stroke-miterlimit="10" fill="none"/><path d="M74.668 130.875l36.38-11.82M74.668 130.875L60.68 117.832" stroke-width="1.2" stroke="#000" stroke-miterlimit="10" fill="none"/><path d="M60.68 117.832L46.695 104.79" stroke-width="1.2" stroke="#0c0" stroke-miterlimit="10" fill="none"/><path d="M111.047 119.055L88.563 150M111.047 119.055l-5.91-18.188" stroke-width="1.2" stroke="#000" stroke-miterlimit="10" fill="none"/><path d="M105.137 100.867l-5.91-18.19" stroke-width="1.2" stroke="#0c0" stroke-miterlimit="10" fill="none"/><path d="M88.563 150l-17.856-6.852" stroke-width="1.2" stroke="#000" stroke-miterlimit="10" fill="none"/><path d="M70.707 143.148l-17.855-6.85" stroke-width="1.2" stroke="#0c0" stroke-miterlimit="10" fill="none"/><path d="M88.563 150l-17.856 6.852" stroke-width="1.2" stroke="#000" stroke-miterlimit="10" fill="none"/><path d="M70.707 156.852l-17.855 6.85" stroke-width="1.2" stroke="#0c0" stroke-miterlimit="10" fill="none"/><path d="M36.852 126.797h16v19h-16zm0 0" fill="#fff"/><g fill="#0c0"><use xlink:href="#b" x="36.852" y="141.648"/><use xlink:href="#c" x="48.023" y="141.648"/></g><path d="M36.852 154.203h16v19h-16zm0 0" fill="#fff"/><g fill="#0c0"><use xlink:href="#b" x="36.852" y="169.055"/><use xlink:href="#c" x="48.023" y="169.055"/></g><path d="M83.227 73.176h16v19h-16zm0 0" fill="#fff"/><g fill="#0c0"><use xlink:href="#b" x="83.227" y="88.027"/><use xlink:href="#c" x="94.398" y="88.027"/></g><path d="M30.695 95.29h16v19h-16zm0 0" fill="#fff"/><g fill="#0c0"><use xlink:href="#b" x="30.695" y="110.141"/><use xlink:href="#c" x="41.867" y="110.141"/></g><path d="M30.695 185.71h16v19h-16zm0 0" fill="#fff"/><g fill="#0c0"><use xlink:href="#b" x="30.695" y="200.563"/><use xlink:href="#c" x="41.867" y="200.563"/></g><path d="M83.227 207.824h16v19h-16zm0 0" fill="#fff"/><g fill="#0c0"><use xlink:href="#b" x="83.227" y="222.676"/><use xlink:href="#c" x="94.398" y="222.676"/></g></g></svg>
